X:1
T:Recordad silguerillos
T:Juan de Araujo
T: 
T:Recordad silguerillos
T:jamc2014
T:jamc2014
T:jamc2014
T:jamc2014
T:jamc2014
T:jamc2014
T:jamc2014
T:jamc2014
T:jamc2014
C:Juan de Araujo
Z:jamc2014
%%score [ 1 2 ] { ( 3 4 6 7 ) | 5 }
L:1/8
Q:1/4=120
M:3/2
K:C
V:1 treble nm="Soprano 1"
V:2 treble nm="Soprano 2"
V:3 treble nm="MusicXML Part"
V:4 treble 
V:6 treble 
V:7 treble 
V:5 bass 
V:1
 z4 d4 A4 | B6 c2 d4 | d4 ^c8 | d12 | z12 | z4 A4 B4 | c4 G4 A4 | _B12 | A12 | z4 G4 A4 | %10
w: Re- cor-|dad, _ sil-|gue- ri-|llos,||que no|duer- men las|a-|ves|cuan- do|
w: ||||||||||
 F4 G6 G2 | G4 F8 | E4 A4 E4 | F12 | z4 G4 F4 | E4 F4 G4 | F12 | z4 E4 F4 | G4 D4 E4 | F8 F4 | %20
w: ve- lan dos|so- *|les, re- cor-|dad|rui- se-|ño- * *|res|que no|duer- men las|a- ves|
w: ||||||||||
 z12 | z4 d4 e4 | ^c4 d6 d2 | d4 ^c8 ||[M:4/4] d3 A B2 cc | c2 B2 c2 dc | B2 cc c2 BB | %27
w: |cuan- do|ve- lan dos|so- *|les; ya sus a- rre-|bo- * les con e-|qui- llos su- a- ves, su-|
w: |||||||
 AB c2 B2 BB | ^c2 dd d2 c2 ||[M:3/2] d4 d4 e4 | f4 c4 d4 | e8 e4 | z4 d4 e4 | ^c8 d4- | d4 c8 | %35
w: a- * * ves, con e-|qui- llos su- a- *|ves, que no|duer- men las|a- ves|cuan- do|ve- lan|_ dos|
w: ||||||||
 B4 c4 d4 | c12 | z4 d4 A4 | B6 c2 d4 | d4 ^c8 | d4 A4 B4 | c4 G4 A4 | _B12 | A4 A4 B4 | ^G4 A8- | %45
w: so- * *|les.|Fes- te-|jad, _ sil-|gue- ri-|llos, que no|duer- men las|a-|ves cuan- do|ve- lan|
w: ||||||||||
 A4 G4 G4- | G4 F4 F4 | E4 F4 G4 | F12 | z12 | z4 d6 d2 | c4 _B8 | A4 d4 d4- | d4 ^c8 | d12 | %55
w: _ dos so-|* les, dos|so- * *|les.||1.Hoy͜a la|luz _|más her- mo-||sa.|
w: |||||2.Y pues|ma- dru-|ga la͜au- ro-||ra|
 c4 c4 c4 | d4 e4 f4 | e8 d4 | c8 B4 | A4 B4 c4 | B12 | c8 x4 | z4 e4 B4 | ^c4 d4 d4- | d4 ^c8 | %65
w: La no- che|se͜es- cla- re-|ció que|no se|lu- ce la|no-|che|si- no͜en|au- sen- cia|_ del|
w: con pe- re-|gri- no͜es- plen-|dor. La|no- che|cla- ro͜es que|pier-|de|to- da|su ju- ris-|* dic-|
 d12 |] %66
w: sol.|
w: ción.|
V:2
 z12 | z12 | z4 A4 E4 | F6 G2 A4 | A4 ^G8 | A12 | z12 | z4 d4 e4 | f4 c4 d4 | e8 e4 | z4 d4 e4 | %11
w: ||Des- per-|tad, _ rui-|se- ño-|res,||que no|duer- men las|a- ves|cuan- do|
w: |||||||||||
 ^c4 d6 d2 | d4 ^c8 | z4 d4 A4 | B6 c2 d4 | d4 ^c8 | d4 A4 B4 | c4 G4 A4 | _B12 | A4 A4 B4 | %20
w: bri- llan dos|so- les,|des- per-|tad, _ rui-|se- ño-|res, que no|duer- men las|a-|ves cuan- do|
w: |||||||||
 ^G4 A8- | A4 G4 G4- | G4 F4 F4 | E4 F4 G4 ||[M:4/4] F4 z2 E2 | ^F2 GG G2 F2 | G2 AG ^F2 GG | %27
w: bri- llan|_ dos so-|* les, dos|so- * *|les; ya|sus a- rre- bo- *|les con e- qui- llos su-|
w: |||||||
 G2 ^F2 G2 GG | G2 FF E4 ||[M:3/2] F12 | z4 A4 B4 | c4 G4 A4 | _B12 | A4 A4 B4 | ^G4 A4 A4 | %35
w: a- * ves, con e-|qui- llos su- a-|ves,|que no|duer- men las|a-|ves cuan- do|bri- llan dos|
w: ||||||||
 A4 ^G8 | A4 A4 E4 | F12 | z4 G4 F4 | E4 F4 G4 | F12 | z4 E4 F4 | G4 D4 E4 | F8 F4 | z12 | %45
w: so- *|les. Des- per-|tad,|sil- gue-|ri- * *|llos,|que no|duer- men las|a- ves||
w: ||||||||||
 z4 d4 e4 | ^c4 d4 d4 | d4 ^c8 | d12 | z4 d6 d2 | c4 _B8 | A4 G4 G4- | G4 F4 F4 | E4 F4 G4 | F12 | %55
w: cuan- do|bri- llan dos|so- *|les.|1.Hoy͜a la|luz más|her- * mo-|* sa, her-|mo- * *|sa.|
w: ||||2.Y pues|ma- dru-|ga la͜au- ro-|* ra, la͜au-|ro- * *|ra|
 A4 B4 c4 | c4 B4 B4 | c8 B4 | A8 G4 | F4 G4 A4 | B4 ^G8 | A4 A4 E4 | G4 G4 G4- | G4 F8 | %64
w: La no- che|se͜es- cla- re-|ció que|no se|lu- ce la|no- *|che si no|en au- sen-|* cia|
w: con pe- re-|gri- no͜es- plen-|dor. La|no- che|cla- ro͜es que|pier- *|de to- *|da su ju-|* ris-|
 E4 F4 G4 | F12 |] %66
w: del- * *|sol.|
w: dic- * *|ción.|
V:3
 z4"^Instrument change" d4 A4 |"^Instrument change" B6"^Instrument change" c2 d4 | %2
"^Instrument change" [_Bd]4"^Instrument change" [A^c]8 |"^Instrument change" [Ad]12 | %4
"^Instrument change" d8 B4 |"^Instrument change" [Ac]4"^Instrument change" d4 B4 | %6
"^Instrument change" c4 G4 A4 |"^Instrument change" [DF_B]8 [CEB]4 | %8
"^Instrument change" [CFA]8"^Instrument change" [DAd]4 | %9
"^Instrument change" [EGc]8"^Instrument change" [EAe]4 | %10
"^Instrument change" [FAd]4"^Instrument change" [Gd]4 [EG_B]4 | %11
"^Instrument change" [^CGA]4"^Instrument change" [DFA]4 [FAd]4 |"^Instrument change" d4 ^c8 | %13
"^Instrument change" [FAd]4 [FAd]4 [FA]4 |"^Instrument change" B6 c2 d4 | %15
"^Instrument change" d4 ^c8 |"^Instrument change" d8 B4 |"^Instrument change" c12 | %18
"^Instrument change" [G_B]12 |"^Instrument change" [CFA]8 [B,FB]4 | %20
"^Instrument change" [D^G]4"^Instrument change" [EA]8 | %21
"^Instrument change" [DFA]4"^Instrument change" [DGB]4 [EBe]4 | %22
"^Instrument change" [EG^c]4"^Instrument change" [FAd]8 |"^Instrument change" d4 ^c8 || %24
[M:4/4]"^Instrument change" [FAd]4 [DGB]2 [EGc]2 | %25
"^Instrument change" [D^Fc]2"^Instrument change" [DGB]2 [DGc]2 d c | %26
"^Instrument change" [DGB]2"^Instrument change" [Ec]2 [D^Fc]2 [DGB]2 | %27
"^Instrument change" [DG]2 [D^Fc]2"^Instrument change" [DGB]4 | %28
"^Instrument change" [EG^c]2"^Instrument change" [FAd]2 [EA]4 || %29
[M:3/2]"^Instrument change" [Fd]8 e4 |"^Instrument change" [Adf]4 [Ac]4 [GBd]4 | %31
"^Instrument change" [Gce]8"^Instrument change" [EAe]4 | %32
"^Instrument change" [F_Bd]8 [GBe]4"^Instrument change" | %33
"^Instrument change" [EA^c]8"^Instrument change" [FBd]4 | %34
"^Instrument change" [E^Gd]4"^Instrument change" [EAc]8 |"^Instrument change" [AB]4 ^G8 | %36
"^Instrument change" [EAc]4 [Ac]4 [EAc]4 |"^Instrument change" [FAd]4 d4 A4 | %38
"^Instrument change" [DGB]8 [FBd]4 |"^Instrument change" d4 ^c8 | %40
"^Instrument change" d4 A4 [FGB]4 |"^Instrument change" [EG]8 [FA]4 | %42
"^Instrument change" [DG_B]8 [EGB]4 |"^Instrument change" [FA]8 [DFB]4"^Instrument change" | %44
"^Instrument change" [B,E^G]4"^Instrument change" [CEA]8 | %45
"^Instrument change" [CDA]4"^Instrument change" [B,DG]4 [GBe]4 | %46
"^Instrument change" [GA^c]4"^Instrument change" [FAd]8 |"^Instrument change" d4 ^c8 | %48
"^Instrument change" [FAd]12 |"^Instrument change" z4"^Instrument change" [FAd]8 | %50
"^Instrument change" [EAc]4"^Instrument change" [DF_B]8 | %51
"^Instrument change" [Ac]4"^Instrument change" [G_B]8 |"^Instrument change" [GA]4 [Fd]4 [FAd]4 | %53
"^Instrument change" d4 ^c8 |"^Instrument change" d12 |"^Instrument change" [Ac]4 [FB]4 [EAc]4 | %56
"^Instrument change" [cd]4 [Be]4"^Instrument change" [GBf]4 | %57
"^Instrument change" G8"^Instrument change" G4 |"^Instrument change" E8"^Instrument change" E4 | %59
"^Instrument change" C4 D4"^Instrument change" E4 | %60
"^Instrument change" [DF]4"^Instrument change" [DE]8 | %61
"^Instrument change" [CEA]4 [Ac]4"^Instrument change" [E-B]4 | %62
"^Instrument change" [EGc]4"^Instrument change" [EBe]4 [FGB]4 | %63
"^Instrument change" [EG^c]4"^Instrument change" [FAd]8 |"^Instrument change" d4 ^c8 | %65
"^Instrument change" [FAd]12 |] %66
V:4
 z4 [FA]4 F4 | [DG]8 F4 | E12 | F6"^Instrument change" G2 A4 | A2"^Instrument change" F2 [E^G]8 | %5
 E4 [FG]8 | [EG]8 E4 | x12 | x12 | x12 | x12 | x12 | E4 F4 G4 | x12 | [DG]8 [F_B]4 | E4 F4 G4 | %16
 A8 G4 | [EG]8 [FA]4 | D8 E4 | x12 | B,4 D4 ^C4 | x12 | x12 | E4 F4 G4 ||[M:4/4] x8 | x8 | x8 | %27
 x8 | x8 ||[M:3/2] x12 | x12 | x12 | x12 | x12 | x12 | E12 | x12 | x12 | x12 | E4 F4 G4 | x12 | %41
 x12 | x12 | x12 | x12 | x12 | x12 | A12 | x12 | x12 | x12 | x12 | x12 | E4 F4 G4 | %54
 [FA]4 [DF]2 [EG]2 [FA]2 [GB]2 | x12 | x12 | x12 | x12 | x12 | x12 | x12 | x12 | x12 | E4 F4 G4 | %65
 x12 |] %66
V:5
 z4 D,4 D,4 | G,6 A,2 _B,4 | G,4 A,4 A,,4 | D,6 E,2 F,4- | F,2 D,2 E,4 E,4 | A,4 D8 | C12 | %7
 _B,6 A,2 G,4 | F,8 F,4 | C,8 C,4 | D,4 G,8 | A,4 D,8 | A,12 | D,12 | G,12 | A,12 | D,12 | C,12 | %18
 G,12 | F,6 E,2 D,4 | E,4 A,,8 | D,4 G,8 | A,4 D,8 | A,12 ||[M:4/4] D,4 G,2 C,2 | D,2 G,2 A,2 D,2 | %26
 E,2 A,2 D,2 G,2 | D,4 G,4 | A,2 D,2 A,4 ||[M:3/2] D,12 | D4 A,4 G,4 | C8 C4 | _B,6 A,2 G,4 | %33
 A,8 D,4 | E,4 A,8 | E,12 | A,12 | D,12 | G,12 | A,12 | D,8 D,4 | C,12 | G,8 G,4 | F,6 E,2 D,4 | %44
 E,4 A,6 G,2 | ^F,4 G,8 | A,4 D,8 | A,12 | D,12 | z4 D,6 D,2 | A,4 _B,8 | F,4 G,8 | D,12 | A,12 | %54
 D,12 | F,4 G,4 A,4 | G,8 G,4 | C8 G,4 | A,8 E,4 | F,8 C,4 | D,4 E,8 | A,8 G,4 | E,4 G,8 | %63
 A,4 D,8 | A,,12 | D,12 |] %66
V:6
 x12 | x12 | x12 | x12 | x12 | x12 | x12 | x12 | x12 | x12 | x12 | x12 | A12 | x12 | x12 | A12 | %16
 F12 | x12 | x12 | x12 | x12 | x12 | x12 | A12 ||[M:4/4] x8 | x8 | x8 | x8 | x8 ||[M:3/2] x12 | %30
 x12 | x12 | x12 | x12 | x12 | x12 | x12 | x12 | x12 | A12 | x12 | x12 | x12 | x12 | x12 | x12 | %46
 x12 | E4 F4 G4 | x12 | x12 | x12 | x12 | x12 | A12 | x12 | x12 | x12 | x12 | x12 | x12 | x12 | %61
 x12 | x12 | x12 | A12 | x12 |] %66
V:7
 x12 | x12 | x12 | x12 | x12 | x12 | x12 | x12 | x12 | x12 | x12 | x12 | x12 | x12 | x12 | x12 | %16
 x12 | x12 | x12 | x12 | x12 | x12 | x12 | x12 ||[M:4/4] x8 | x6 [^FA]2 | x2 AG x4 | AB x6 | %28
 x4 d2 ^c2 ||[M:3/2] A12 | x12 | x12 | x12 | x12 | x12 | x4 c4 d4 | x12 | x4 [FA]8 | x12 | x12 | %40
 [FA]8 x4 | c12 | x12 | x12 | x12 | x12 | x12 | x12 | x12 | x12 | x12 | D12 | D8 x4 | x12 | x12 | %55
 x12 | G8 x4 | x12 | x12 | x12 | B8 ^G4 | x12 | x12 | x12 | x12 | x12 |] %66

